X:1
T:Title
%%score { ( 1 4 ) | ( 2 3 ) }
L:1/8
Q:1/4=120
M:4/4
K:E
V:1 treble nm="Church Organ"
V:4 treble 
V:2 treble 
V:3 treble 
V:1
 z2 .G2 B2 c2 | G2 E2 E4 | F2 A2 G2 F2 | E2 G2 E2 F2 | z4 z2 .G2 | B2 c2 G2 E2 | E4 F2 A2 | %7
 G2 F2 E2 G2 | E2 F2 z4 | .E2 F2 G2 G2 | G2 F2 A2 c2 | B2 B2 G4 | B2 z2 [EA]2 F2 | E2 G2 [CEG]4 | %14
 .E2 F2 G2 G2 | G2 F2 A2 c2 | B2 B2 G4 | B2 z2 [EA]2 F2 | E2 G2 [EG]4 | z2 .F2 c2 d2 | %20
 c2 B2 c2 z2 | z4 A2 z2 | z4 F2 z2 | [EA]2 F2 G4 | .F2 c2 d2 c2 | B2 c2 B2 G2- | G2 A2 G2 F2 | %27
 E2 F2 G2 A2 | z4 z2 E2 | z4 z2 F2 | z8 | B2 G2 F2 A2 | F2 E2 G4 | E2 F2 A2 F2 | F2 E2 [B,G]4 | %35
 z2 [EA]2 B2 G2 | F2 A2 F2 E2 | G4 E2 F2 | A2 F2 F2 E2 | G4 G2 B2 | B4 c2 B2 | c2 B2 G4 | %42
 G2 B2 B4 | c2 B2 c2 z2 | [EG]4 B2 z2 | z2 [EA]2 c2 z2 | [GB]2 G4 B2 | G2 A2 F2 E2 | G2 G4 B2 | %49
 c2 B2 A2 c2 | B2 [DB]2 [EG]4 | [FB]2 G2 A2 F2 | A2 B2 c2 z2 | z2 [DFB]2 G2 A2 | F2 E2 F2 G2 | %55
 [A,CF]2 [A,F]4 [B,E]2- | [B,E]2 z2 z4 |] %57
V:2
 z2 E6 | E2 z2[K:bass] z4 | [F,A,C]4 [C,C]4- | [C,G,C]2 [C,E,C]4 z2 | E4 z2[K:treble] E2- | E4 C4 | %6
 C4 [F,A,C]4 | [C,C]4- [C,G,C]2 [C,E,C]2- | [C,E,C]2 z2 E4 | C4 [B,D]4 | C4- [F,A,C]2 [C,G,]2- | %11
 [C,G,]2 [E,E]2- [E,B,E]4 | z2 G2 C,2 [D,D]2 | [E,B,]4 C,4 | C4 [B,D]4 | C4- [F,A,C]2 [C,G,]2- | %16
 [C,G,]2 [E,E]2- [E,B,E]4 | z2 G2 C,2 [D,D]2 | [E,B,]4 [C,C]4 | z2 [F,A,]4 A,2- | %20
 A,2 B,2[K:treble] G,2- [G,B]2 | G4[K:bass] z2 G2 | F2 E2 z2 G2 | C,2 D,2 [E,B,]4 | %24
 [A,C]4 F2- [CF-]2 | [B,DF]2 E6- | E2 [CE]4 [A,C]2- | [A,C]2 A,4[K:bass] [F,A,]2- | %28
 [D,F,A,]2 E,4 z2 | F2 z2 F2 z2 | E2 E,4 C,2 | F,2 G,2 [F,A,C]4 | [C,G,C]4 [C,E,C]4 | %33
 [E,C]2 [D,B,]2 E,4 | A,4 E,4 | z2 C,2 F,2 G,2 | [F,A,C]4 [C,G,C]4 | [C,E,C]4 [E,C]2 [D,B,]2 | %38
 E,4 A,4 | [E,B,]4[K:treble] [CE]4 | [B,DF]4 [A,EA]4 | z4 [B,E]4 | [CE]4 [B,DF]4 | [A,EA]4 z2 B2 | %44
 B,4 z2 c2 | B2[K:bass] C,2 z2[K:treble] B2 | [E,E]6[K:bass] [E,E]2- | %47
 [E,B,E]2 [F,A,C]4 [C,G,C]2- | [C,G,C]2 [E,G,C]4 [D,F,]2- | [D,F,]2 [F,CF]6- | [F,CF]2 B,,2 C,4 | %51
 D,2 [E,E]2 [F,A,C]4- | [F,A,C]4 z2 G2- | G2 B,,2 [E,B,E]2 [F,A,C]2- | [F,A,C]2 G,2 F,2 E,2 | %55
 A,,2 z2 C2 z2 | G,2 z2 z4 |] %57
V:3
 x8 | C4[K:bass] C4 | z4 F,4 | z4 z2 A,,2- | A,,4 z4[K:treble] | z4 E2 z2 | x8 | F,4 z4 | z2 A,,6 | %9
 x8 | A,4 z4 | z2 G,2 z4 | B,,4 z4 | x8 | x8 | A,4 z4 | z2 G,2 z4 | B,,4 z4 | x8 | z4 z2 D,2- | %20
 D,4[K:treble] E,4- | E,4[K:bass] F,,4- | F,,4 A,,4 | x8 | z4 A,2 z2 | z2 G4 z2 | x8 | %27
 z4 z2[K:bass] E2 | z4 z2 A,,2- | A,,2 F,,4 A,,2- | A,,2 z2 z4 | B,,4 z4 | x8 | z4 A,,4- | %34
 A,,4 z4 | z4 B,,4 | x8 | x8 | A,,8 | x4[K:treble] x4 | x8 | E,8 | x8 | z4 E,4- | E,4 [D,F,]4- | %45
 [D,F,]2[K:bass] z2 A,,4[K:treble] | z4 z2[K:bass] G,2 | x8 | x8 | x8 | x8 | x8 | z4 [C,G,]4- | %53
 [C,G,]2 z2 z4 | z2 [C,C]6 | z2 D,4 E,2- | E,2 z2 z4 |] %57
V:4
 x8 | x8 | x8 | z4 z2 [A,C]2- | [A,C]4 z4 | x8 | x8 | x8 | z2 [A,C]6 | x8 | z4 z2 E2- | E2 z2 z4 | %12
 D4 z4 | x8 | x8 | z4 z2 E2- | E2 z2 z4 | D4 z4 | x8 | z4 z2 F2- | F4 G4 | z4 C4- | C4 C4 | x8 | %24
 x8 | x8 | x8 | x8 | F2 [B,EG]4 [A,C]2- | [A,C]2- [A,-C-A]2 [A,C]2 [A,C]2- | [A,C]2 [B,EG]4 [EA]2 | %31
 D4 z4 | x8 | x8 | x8 | z4 D4 | x8 | x8 | x8 | x8 | x8 | [EG]4 z4 | x8 | z4 [EG]4 | z4 F4- | %45
 F2 z2 [EA]4 | x8 | x8 | z4 z2 F2- | F2 z2 z4 | x8 | x8 | z4 E4- | E2 z2 z4 | x8 | z2 D2 z2 A,2 | %56
 x8 |] %57

